docs/images/html5.svg

<svg height="420" viewBox="0 0 298 420" width="298" xmlns="http://www.w3.org/2000/svg"><g fill="none" fill-rule="evenodd"><path d="m27.383 386.266-27.07-303.62h297.45l-27.098 303.571-121.809 33.769zm0 0" fill="#e44f26"/><path d="m149.038 394.175 98.427-27.288 23.158-259.416h-121.585zm0 0" fill="#f1662a"/><path d="m149.038 220.08h-49.275l-3.404-38.132h52.679v-37.239h-.129-93.246l.892 9.991 9.152 102.616h83.331zm0 0" fill="#ebebeb"/><path d="m149.038 316.788-.163.046-41.472-11.199-2.652-29.698h-20.151-17.229l5.217 58.467 76.278 21.176.172-.048zm0 0" fill="#ebebeb"/><g fill="#010101"><path d="m27.988.135h18.924v18.696h17.311v-18.696h18.925v56.618h-18.924v-18.958h-17.31v18.958h-18.926zm0 0"/><path d="m108.032 18.91h-16.66v-18.775h52.252v18.775h-16.667v37.843h-18.924v-37.843zm0 0"/><path d="m151.917.135h19.733l12.137 19.894 12.127-19.894h19.739v56.618h-18.846v-28.063l-13.021 20.13h-.325l-13.028-20.13v28.063h-18.517v-56.618zm0 0"/><path d="m225.071.135h18.929v37.903h26.612v18.714h-45.542v-56.617zm0 0"/></g><path d="m148.909 220.08v37.236h45.854l-4.322 48.294-41.532 11.21v38.742l76.34-21.158.559-6.29 8.751-98.035.908-9.999h-10.034zm0 0" fill="#fff"/><path d="m148.909 144.709v23.128 14.019.092h89.827.12l.747-8.37 1.696-18.878.891-9.991zm0 0" fill="#fff"/></g></svg>

<?xml version="1.0" encoding="UTF-8" standalone="no"?>
<svg width="298px" height="420px" viewBox="0 0 298 420" version="1.1" xmlns="http://www.w3.org/2000/svg" xmlns:xlink="http://www.w3.org/1999/xlink" xmlns:sketch="http://www.bohemiancoding.com/sketch/ns">
    <title>Slice 1</title>
    <description>Created with Sketch (http://www.bohemiancoding.com/sketch)</description>
    <defs></defs>
    <g id="Page 1" stroke="none" stroke-width="1" fill="none" fill-rule="evenodd">
        <g id="Group">
            <path d="M27.383,386.266 L0.313,82.646 L297.763,82.646 L270.665,386.217 L148.856,419.986 L27.383,386.266 Z M27.383,386.266" id="Shape" fill="#E44F26"></path>
            <path d="M149.038,394.175 L247.465,366.887 L270.623,107.471 L149.038,107.471 L149.038,394.175 Z M149.038,394.175" id="Shape" fill="#F1662A"></path>
            <path d="M149.038,220.08 L99.763,220.08 L96.359,181.948 L149.038,181.948 L149.038,144.709 L148.909,144.709 L55.663,144.709 L56.555,154.7 L65.707,257.316 L149.038,257.316 L149.038,220.08 Z M149.038,220.08" id="Shape" fill="#EBEBEB"></path>
            <path d="M149.038,316.788 L148.875,316.834 L107.403,305.635 L104.751,275.937 L84.6,275.937 L67.371,275.937 L72.588,334.404 L148.866,355.58 L149.038,355.532 L149.038,316.788 Z M149.038,316.788" id="Shape" fill="#EBEBEB"></path>
            <path d="M27.988,0.135 L46.912,0.135 L46.912,18.831 L64.223,18.831 L64.223,0.135 L83.148,0.135 L83.148,56.753 L64.224,56.753 L64.224,37.795 L46.914,37.795 L46.914,56.753 L27.988,56.753 L27.988,0.135 L27.988,0.135 Z M27.988,0.135" id="Shape" fill="#010101"></path>
            <path d="M108.032,18.91 L91.372,18.91 L91.372,0.135 L143.624,0.135 L143.624,18.91 L126.957,18.91 L126.957,56.753 L108.033,56.753 L108.033,18.91 L108.032,18.91 L108.032,18.91 Z M108.032,18.91" id="Shape" fill="#010101"></path>
            <path d="M151.917,0.135 L171.65,0.135 L183.787,20.029 L195.914,0.135 L215.653,0.135 L215.653,56.753 L196.807,56.753 L196.807,28.69 L183.786,48.82 L183.461,48.82 L170.433,28.69 L170.433,56.753 L151.916,56.753 L151.916,0.135 L151.917,0.135 Z M151.917,0.135" id="Shape" fill="#010101"></path>
            <path d="M225.071,0.135 L244,0.135 L244,38.038 L270.612,38.038 L270.612,56.752 L225.07,56.752 L225.07,0.135 L225.071,0.135 Z M225.071,0.135" id="Shape" fill="#010101"></path>
            <path d="M148.909,220.08 L148.909,257.316 L194.763,257.316 L190.441,305.61 L148.909,316.82 L148.909,355.562 L225.249,334.404 L225.808,328.114 L234.559,230.079 L235.467,220.08 L225.433,220.08 L148.909,220.08 Z M148.909,220.08" id="Shape" fill="#FFFFFF"></path>
            <path d="M148.909,144.709 L148.909,167.837 L148.909,181.856 L148.909,181.948 L238.736,181.948 L238.856,181.948 L239.603,173.578 L241.299,154.7 L242.19,144.709 L148.909,144.709 Z M148.909,144.709" id="Shape" fill="#FFFFFF"></path>
        </g>
    </g>
</svg>
